X:1
T:Junon.(2 voices). TWC.294, La
T:Junon.(2 voices). TWC.294, La
T:La Poulle
C:La Poulle
%%score 1 2
L:1/8
Q:3/8=100
M:6/8
K:C
V:1 treble 
V:2 bass 
V:1
"^Quadrilles   No. 3.  2d. Set" cdc c2 d | e2 f g3 | ac'a gfe | faf e2 c | cdc c2 d | e2 f g3 | %6
 ac'a gfe | fed c3!fine! :| gbg g2 a | b2 c' d'3 | e'2 e' d'c'b | abc' bag | gag g2 a | b2 c' d'3 | %14
 e'2 e' d'c'b | c'ba g3 || egf edc | d2 e f3 | egf edc | d2 c BAG | gdB gdB | gec gec | Bdg dcB | %23
"^D.C. Senza replica" AG^F G3 |] %24
V:2
 C,3 C,3 | C,2 D, E,3 | F,3 E,D,C, | A,3 G,2 E, | C,3 C,3 | C,2 D, E,3 | F,3 E,D,C, | %7
 G,2 G,, C,3 :| G,,3 G,3 | G,2 A, B,2 G, | C2 G, B,A,G, | D,3 D,3 | G,3 G,2 D, | G,2 A, B,2 G, | %14
 C2 G, B,A,G, | CDD, G,3 || C,3 C,3 | B,,3 B,,3 | C,3 C,3 | D,2 D,, G,,3 | [G,,B,,]3 [G,,B,,]3 | %21
 [G,,C,]3 [G,,C,]3 | [G,,B,,]3 [G,,B,,]2 D, | C,D,D,, G,,3 |] %24

